X:3822
T:I Won't Be A Nun 3822
N:tune id: 3822; setting id: 3822
Z:ceolachan
S:thesession.org
R:march
M:4/4
K:Gmajor
|:G>A|Bd g>a g2 fe|dB B>c B2 AG|Bd ce dB GB|Ag fe dc BA|
Bd g>a g>a b/a/g/f/|ed B>c B2 AG|Bd ge dB AB|G2 G>A G2:|
|:fg|a<f d>f d2 ga|bg e>f e2 ga|bg af ge dB|AD FA dc BA|
Bd g>a g>a b/a/g/f/|ed B>c B2 AG|Bd ce dB AB|G2 G>A G2:|
|:ab|c'b af ge dc|BG/B/ dB/d/ g2 ab|c'b af ge dB|BA AB A2 G>A|
Bd g>a g>a b/a/g/f/|ed B>c B2 AG|Bd ge dB AB|G2 G>A G2:|


